X: 2
T: Missa Ave regina celorum / Gloria
N: Derived from Duf1002b-Missa_Ave_regina_celorum-Gloria.krn
C: Guillaume Du Fay
%%abc-version 2.0
%%abcx-abcm2ps-target-version 5.9.1 (29 Sep 2008)
%%abc-creator hum2abc beta
%%abcx-conversion-date 2019/02/16 20:31:45
%%abc-edited-by Alejandro Planchart, Jesse Rodin
%%abc-edited-by Alejandro Planchart
%%abcx-initial-encoding-date 2014/07/19/
%%humdrum-veritas 175301141
%%humdrum-veritas-data 2755227154
%%linebreak <none>
%%barnumbers 0
L: 1/4
M: 3/1
Q: 1/2=120
%%staves [1 2 3 4]
V: 1 clef=treble
V: 2 clef=treble-8
V: 3 clef=treble-8
V: 4 clef=bass
K: C
[V:1] c6B2A4 | 
[V:2] f8c4 | 
[V:3] z12 | 
[V:4] F,8F,4 | 
[V:1] G4F2A3GE2 | 
[V:2] c4d3cA4- | 
[V:3] z12 | 
[V:4] _E,4D,6C,2 | 
[V:1] F4G6=E2 | 
[V:2] A4G8 | 
[V:3] z12 | 
[V:4] D,4_E,6C,2 | 
[V:1] E4z2A2G2E2 | 
[V:2] z2g4f2e4 | 
[V:3] c8c4 | 
[V:4] C,12 | 
[V:1] F2D2F2G2A4 | 
[V:2] d2f4e2d4 | 
[V:3] _B4A6G2 | 
[V:4] D,8D,2=E,2 | 
[V:1] A4D4G4- | 
[V:2] c4g3fd4 | 
[V:3] A4_B6G2- | 
[V:4] F,4G,8 | 
[V:1] G2c2B2A2BAGF | 
[V:2] e4c4[d4f4] | 
[V:3] G2A2G2c4=B2 | 
[V:4] C,4E,2F,2D,4 | 
[V:1] E4z4c4 | 
[V:2] [G8g8]z4 | 
[V:3] c12 | 
[V:4] C,12 | 
[V:1] c4c6BA | 
[V:2] g4g4g4 | 
[V:3] c12 | 
[V:4] z12 | 
[V:1] B8B4 | 
[V:2] g6f2d4 | 
[V:3] d12 | 
[V:4] G,8G,4 | 
[V:1] c2B2G4c4 | 
[V:2] c8g4 | 
[V:3] e12 | 
[V:4] C,8C,4 | 
[V:1] c6B2c4 | 
[V:2] g8e4 | 
[V:3] e12 | 
[V:4] C8C4 | 
[V:1] d4B4c2A2 | 
[V:2] d6g2f3e | 
[V:3] z12 | 
[V:4] G,8A,4 | 
[V:1] B2c2d4c4 | 
[V:2] g2a2d2g4^f2 | 
[V:3] z12 | 
[V:4] G,2F,2_B,4A,4 | 
[V:1] B4z4B4 | 
[V:2] g8z4 | 
[V:3] d8e4 | 
[V:4] G,12 | 
[V:1] A2c4d2e4 | 
[V:2] a4a4g4 | 
[V:3] f8e4 | 
[V:4] F,8C,4 | 
[V:1] A2B2c3BA2G2- | 
[V:2] f4g4f2d2 | 
[V:3] d4e2c4=B2 | 
[V:4] D,4C,2E,2F,2G,2 | 
[V:1] G2e2d2c4B2 | 
[V:2] e2c2defe/f/g4 | 
[V:3] c3A=B2c2d4 | 
[V:4] C,4G,2A,2G,4 | 
[V:1] c12- | 
[V:2] z2g2a2g2e3f | 
[V:3] c8c4 | 
[V:4] C,12- | 
[V:1] c12 | 
[V:2] g4c4z4 | 
[V:3] e2f2g4c4 | 
[V:4] C,12 | 
[V:1] z12 | 
[V:2] c4B4c2e2 | 
[V:3] g2e2gfd2c4 | 
[V:4] z4z4C,4 | 
[V:1] z12 | 
[V:2] d2g4g2f2e2 | 
[V:3] z12 | 
[V:4] B,,4C,2E,2D,2G,2- | 
[V:1] z12 | 
[V:2] d2cBA2G2B3c | 
[V:3] z12 | 
[V:4] G,2G,2F,2E,2D,3E, | 
[V:1] z12 | 
[V:2] d2e3cc4B2 | 
[V:3] z12 | 
[V:4] F,2G,2C,2E,2D,4 | 
[V:1] z12 ||  
[V:2] c12 ||  
[V:3] z12 ||  
[V:4] C,12 ||  
[V:1]  [K:C] [K:clef=treble][M:3/1]G4c4B2A2- | 
[V:2]  [K:C] [K:clef=treble-8][M:3/1]z12 | 
[V:3]  [K:C] [K:clef=treble-8][M:3/1]c8c4 | 
[V:4]  [K:C] [K:clef=bass][M:3/1]z12 | 
[V:1] A2G2A2c2B2d2- | 
[V:2] z12 | 
[V:3] _B4A4G2_B2- | 
[V:4] z12 | 
[V:1] dcBAB2G4^F2 | 
[V:2] z12 | 
[V:3] Bcd2G2_B2A4 | 
[V:4] z12 | 
[V:1] G3AB2c2BAGF | 
[V:2] z12 | 
[V:3] G6A4=B2 | 
[V:4] z12 | 
[V:1] E4z2A2G2E2 | 
[V:2] z12 | 
[V:3] c8c4 | 
[V:4] z12 | 
[V:1] F2EDC4z4 | 
[V:2] z12 | 
[V:3] d4e4e4 | 
[V:4] z12 | 
[V:1] c3Bc2d2cBA2 | 
[V:2] z12 | 
[V:3] z2e4d2e2f2- | 
[V:4] z12 | 
[V:1] c2d2B3AB2c2 | 
[V:2] z12 | 
[V:3] fef2g2e3de2 | 
[V:4] z12 | 
[V:1] A3FG2E2D2z2 | 
[V:2] z12 | 
[V:3] f2d3_Bc2d2G2 | 
[V:4] z12 | 
[V:1] d3cBAG2FA2G | 
[V:2] z12 | 
[V:3] z2g3fe2d2c2- | 
[V:4] z12 | 
[V:1] E2F2G3FE2D2 | 
[V:2] z12 | 
[V:3] c2d2e2c3A_B2 | 
[V:4] z12 | 
[V:1] z2FGA2GE2DG2 | 
[V:2] z12 | 
[V:3] c2d2z2G2A_B2c | 
[V:4] z12 | 
[V:1] FEG2zAGAB3c | 
[V:2] z12 | 
[V:3] A2G2c4d2e2 | 
[V:4] z12 | 
[V:1] d2e3cc4B2 | 
[V:2] z12 | 
[V:3] f2g2c4d4 | 
[V:4] z12 | 
[V:1] c12 ||  
[V:2] z12 ||  
[V:3] c12 ||  
[V:4] z12 ||  
[V:1]  [K:C] [K:clef=treble][M:3/1]c8B4- | 
[V:2]  [K:C] [K:clef=treble-8][M:3/1]g8g4 | 
[V:3]  [K:C] [K:clef=treble-8][M:3/1]c8d4 | 
[V:4]  [K:C] [K:clef=bass][M:3/1]C,8G,4- | 
[V:1] B2G2A4B4 | 
[V:2] g4c4B4 | 
[V:3] e4f4d2c2 | 
[V:4] G,4F,4G,4 | 
[V:1] G4E8 | 
[V:2] c4c4c4 | 
[V:3] e4g6f2 | 
[V:4] C,12 | 
[V:1] C4D2F2E2G2- | 
[V:2] G4z4z4 | 
[V:3] e4d4c4 | 
[V:4] C,4B,,4C,4 | 
[V:1] G2c2d2B4A2 | 
[V:2] g4g4g4 | 
[V:3] e4d8 | 
[V:4] z4G,8 | 
[V:1] c4z4c4 | 
[V:2] e4a2g2e3f | 
[V:3] c12 | 
[V:4] A,4F,2G,2A,4 | 
[V:1] B2A4G2A2F2 | 
[V:2] edfedcc4B2 | 
[V:3] z12 | 
[V:4] G,2F,4E,2D,4 | 
[V:1] G4A4F4- | 
[V:2] c4A4z4 | 
[V:3] c12 | 
[V:4] C,4F,8 | 
[V:1] F4D2E2C4- | 
[V:2] a4g4f4 | 
[V:3] A4_B2G2A4 | 
[V:4] z2F,2G,2E,2F,4 | 
[V:1] C8z2c2- | 
[V:2] e8e4 | 
[V:3] G8G4 | 
[V:4] C,12 | 
[V:1] c2d2e3fecd2 | 
[V:2] f4e2g4g2- | 
[V:3] A2=B2c6=B2 | 
[V:4] z12 | 
[V:1] e2c4B2c4 | 
[V:2] g2a2f3eg4 | 
[V:3] c4d4c4 | 
[V:4] z12 | 
[V:1] z2e4d2c4 | 
[V:2] e2c2e2f2g4 | 
[V:3] z4c8 | 
[V:4] C,12 | 
[V:1] B4B4B4 | 
[V:2] z4g4g4 | 
[V:3] d4e6d2 | 
[V:4] G,12 | 
[V:1] A2c6B2d2 | 
[V:2] c8G4 | 
[V:3] f4e2c2d4 | 
[V:4] F,4A,4B,4 | 
[V:1] e2c4B2A4 | 
[V:2] e4f2d2c2f2 | 
[V:3] c2A4=B2c4 | 
[V:4] C4F,2G,2A,2F,2 | 
[V:1] G2z2c2B2d2e2 | 
[V:2] e2g2f2d2g4 | 
[V:3] G4A2=B2G2c2- | 
[V:4] z2E,2F,2G,4E,2 | 
[V:1] c2f2e3d/c/B3A | 
[V:2] a2f2g8 | 
[V:3] c2=B2c2e2d4 | 
[V:4] F,2D,2C,4G,4 | 
[V:1] c12 ||  
[V:2] e2f2g8 ||  
[V:3] c12 ||  
[V:4] C,12 ||  
[V:1]  [K:C] [K:clef=treble][M:4/2]z8 | 
[V:2]  [K:C] [K:clef=treble-8][M:4/2]G8 | 
[V:3]  [K:C] [K:clef=treble-8][M:4/2]z8 | 
[V:4]  [K:C] [K:clef=bass][M:4/2]z8 | 
[V:1] z8 | 
[V:2] G4c4- | 
[V:3] z8 | 
[V:4] z8 | 
[V:1] G8 | 
[V:2] c4B4 | 
[V:3] z8 | 
[V:4] z8 | 
[V:1] G4c4- | 
[V:2] c4e4 | 
[V:3] z8 | 
[V:4] z8 | 
[V:1] c4B4 | 
[V:2] d8 | 
[V:3] z8 | 
[V:4] z8 | 
[V:1] c4e4 | 
[V:2] c8 | 
[V:3] z8 | 
[V:4] z8 | 
[V:1] d8 | 
[V:2] f8 | 
[V:3] z8 | 
[V:4] z8 | 
[V:1] c8 | 
[V:2] e4c4 | 
[V:3] z8 | 
[V:4] z8 | 
[V:1] f8 | 
[V:2] d8 | 
[V:3] z8 | 
[V:4] z8 | 
[V:1] e4c4 | 
[V:2] c8 | 
[V:3] z8 | 
[V:4] z8 | 
[V:1] d8 | 
[V:2] z4B4 | 
[V:3] z8 | 
[V:4] z8 | 
[V:1] c8 | 
[V:2] c4A4 | 
[V:3] z8 | 
[V:4] z8 | 
[V:1] z4B4 | 
[V:2] G8 | 
[V:3] z8 | 
[V:4] z8 | 
[V:1] c4A4 | 
[V:2] A6B2 | 
[V:3] z8 | 
[V:4] z8 | 
[V:1] G8 | 
[V:2] c8 | 
[V:3] z8 | 
[V:4] z8 | 
[V:1] A4B4 | 
[V:2] z4d4 | 
[V:3] z8 | 
[V:4] z8 | 
[V:1] c6B2 | 
[V:2] c4e4- | 
[V:3] z8 | 
[V:4] z8 | 
[V:1] c4d4 | 
[V:2] e4f4 | 
[V:3] z8 | 
[V:4] z8 | 
[V:1] e6d2 | 
[V:2] g4c4- | 
[V:3] z8 | 
[V:4] z8 | 
[V:1] e4f4 | 
[V:2] c4d4 | 
[V:3] z8 | 
[V:4] z8 | 
[V:1] d4e4 | 
[V:2] B4c4 | 
[V:3] z8 | 
[V:4] z8 | 
[V:1] f2e3dc2 | 
[V:2] A8 | 
[V:3] z8 | 
[V:4] z8 | 
[V:1] B8 | 
[V:2] G8 | 
[V:3] z8 | 
[V:4] z8 | 
[V:1] z8 | 
[V:2] [M:3/3](3G4A4B4 | 
[V:3] z8 | 
[V:4] z8 | 
[V:1] [M:3/3](3G4A4B4 | 
[V:2] (3:2:2c8d4 | 
[V:3] z8 | 
[V:4] z8 | 
[V:1] (3:2:2c8d4 | 
[V:2] (3:2:2c4f8 | 
[V:3] z8 | 
[V:4] z8 | 
[V:1] (3:2:2c4f8 | 
[V:2] (3:2:2e4d8 | 
[V:3] z8 | 
[V:4] z8 | 
[V:1] (3:2:2e4d8 | 
[V:2] (3c4d4B4 | 
[V:3] z8 | 
[V:4] z8 | 
[V:1] (3c4d4B4 | 
[V:2] (3e4f4g4 | 
[V:3] z8 | 
[V:4] z8 | 
[V:1] (3:2:1e4d4(3:2:1c2 | 
[V:2] (3c4G4c4- | 
[V:3] z8 | 
[V:4] z8 | 
[V:1] (3:2:2c8B4 | 
[V:2] (3:2:2c4d8 | 
[V:3] z8 | 
[V:4] z8 | 
[V:1] c8 ||  
[V:2] c8 ||  
[V:3] z8 ||  
[V:4] z8 ||  
[V:1]  [K:C] [K:clef=treble][M:4/2]z8 | 
[V:2]  [K:C] [K:clef=treble-8][M:4/2]z8 | 
[V:3]  [K:C] [K:clef=treble-8][M:4/2]c8 | 
[V:4]  [K:C] [K:clef=bass][M:4/2]z8 | 
[V:1] z8 | 
[V:2] z8 | 
[V:3] e4f4 | 
[V:4] z8 | 
[V:1] z8 | 
[V:2] z8 | 
[V:3] g8- | 
[V:4] C,8 | 
[V:1] z8 | 
[V:2] z8 | 
[V:3] g4f4 | 
[V:4] E,4F,4 | 
[V:1] z8 | 
[V:2] z8 | 
[V:3] e4d4- | 
[V:4] G,8 | 
[V:1] z8 | 
[V:2] z8 | 
[V:3] d2c2c4 | 
[V:4] F,4E,4 | 
[V:1] z8 | 
[V:2] z8 | 
[V:3] d2_B2c2d2 | 
[V:4] D,4C,2F,2 | 
[V:1] z8 | 
[V:2] z8 | 
[V:3] G2c4=B2 | 
[V:4] E,2C,2D,4 | 
[V:1] z8 | 
[V:2] z8 | 
[V:3] c2_e2d2c2 | 
[V:4] C,4_B,,2C,2 | 
[V:1] z8 | 
[V:2] z8 | 
[V:3] g4f2_e2- | 
[V:4] _E,2D,4C,2 | 
[V:1] z8 | 
[V:2] z8 | 
[V:3] e2d4c2 | 
[V:4] G,4F,2_E,2 | 
[V:1] z8 | 
[V:2] z8 | 
[V:3] c4=B2A2 | 
[V:4] C,2_E,2D,4 | 
[V:1] z8 | 
[V:2] z8 | 
[V:3] c8 | 
[V:4] C,8 | 
[V:1] z8 | 
[V:2] z8 | 
[V:3] z8 | 
[V:4] z8 | 
[V:1] c8 | 
[V:2] g8 | 
[V:3] c8- | 
[V:4] C,8- | 
[V:1] c8 | 
[V:2] g4g4 | 
[V:3] c8- | 
[V:4] C,8- | 
[V:1] G4c4 | 
[V:2] g8 | 
[V:3] c8- | 
[V:4] C,8- | 
[V:1] c6B2 | 
[V:2] g8 | 
[V:3] c8- | 
[V:4] C,8 | 
[V:1] A8 | 
[V:2] f8 | 
[V:3] c8- | 
[V:4] F,8 | 
[V:1] G8 | 
[V:2] _e8 | 
[V:3] c8 | 
[V:4] C,8 | 
[V:1] ^F8 | 
[V:2] d8 | 
[V:3] A8- | 
[V:4] D,8- | 
[V:1] ^F8 | 
[V:2] z4d4 | 
[V:3] A8 | 
[V:4] D,8 | 
[V:1] G4^F4 | 
[V:2] _e4d4 | 
[V:3] _B4A4 | 
[V:4] G,4D,4 | 
[V:1] G4A4 | 
[V:2] _e4f4 | 
[V:3] _B4c4 | 
[V:4] G,4F,4 | 
[V:1] _B6AG | 
[V:2] _B4c4 | 
[V:3] d4G4 | 
[V:4] D,4_E,4 | 
[V:1] ^F6E2 | 
[V:2] d8 | 
[V:3] A8 | 
[V:4] D,8 | 
[V:1] G8- | 
[V:2] _B8 | 
[V:3] G8- | 
[V:4] _E,8 | 
[V:1] G4E4 | 
[V:2] c8- | 
[V:3] G8- | 
[V:4] C,8- | 
[V:1] E8- | 
[V:2] c8- | 
[V:3] G8- | 
[V:4] C,8- | 
[V:1] E8 | 
[V:2] c8 | 
[V:3] G8 | 
[V:4] C,8 | 
[V:1] G6A2 | 
[V:2] d8 | 
[V:3] G8- | 
[V:4] z8 | 
[V:1] B8 | 
[V:2] g8 | 
[V:3] G8 | 
[V:4] z8 | 
[V:1] A4c4- | 
[V:2] f6e2 | 
[V:3] A8- | 
[V:4] F,8- | 
[V:1] c4B4 | 
[V:2] c2d2e4 | 
[V:3] A4=B4 | 
[V:4] F,4G,4 | 
[V:1] A4G4 | 
[V:2] f4g2e2 | 
[V:3] c8- | 
[V:4] F,4E,4 | 
[V:1] A4F4 | 
[V:2] z2c2d4 | 
[V:3] c4=B4 | 
[V:4] F,4D,4 | 
[V:1] E6C2 | 
[V:2] G2c3BA2 | 
[V:3] c4A4 | 
[V:4] C,8 | 
[V:1] D4E4 | 
[V:2] G3FA4 | 
[V:3] =B4c4- | 
[V:4] B,,4A,,4 | 
[V:1] F2E3DC2 | 
[V:2] G4c4 | 
[V:3] c4e4 | 
[V:4] C,8 | 
[V:1] B,8 | 
[V:2] z4d4 | 
[V:3] d8 | 
[V:4] G,8 | 
[V:1] C4z4 | 
[V:2] e4f2g2- | 
[V:3] c8 | 
[V:4] C,8- | 
[V:1] c6B2 | 
[V:2] g4a2g2 | 
[V:3] z8 | 
[V:4] C,8 | 
[V:1] A2G2G4- | 
[V:2] e8 | 
[V:3] c8- | 
[V:4] z8 | 
[V:1] G4c4 | 
[V:2] z4e4 | 
[V:3] c8 | 
[V:4] C,8 | 
[V:1] B4B4 | 
[V:2] d4g4 | 
[V:3] d8- | 
[V:4] G,6F,2 | 
[V:1] A4B4 | 
[V:2] f6e2 | 
[V:3] d8 | 
[V:4] D,8 | 
[V:1] c6B2 | 
[V:2] g8 | 
[V:3] e8- | 
[V:4] C,8- | 
[V:1] G8 | 
[V:2] c8 | 
[V:3] e8 | 
[V:4] C,8 | 
[V:1] z4d4 | 
[V:2] A4B2A2- | 
[V:3] f8 | 
[V:4] D,8 | 
[V:1] c4d4 | 
[V:2] A2c2B2A2 | 
[V:3] e4f4 | 
[V:4] z4D,4 | 
[V:1] e6d2 | 
[V:2] c6B2 | 
[V:3] g4e4- | 
[V:4] C,6D,2 | 
[V:1] c4B2d2 | 
[V:2] G2A2G2FG | 
[V:3] e4d4 | 
[V:4] E,4B,,4 | 
[V:1] c2A4G2 | 
[V:2] A4z4 | 
[V:3] f4e4 | 
[V:4] A,,4C,4- | 
[V:1] c2d2e4 | 
[V:2] G4c4 | 
[V:3] c6A2 | 
[V:4] C,4C,4 | 
[V:1] d3cc4- | 
[V:2] d2e2^f3e | 
[V:3] =B4c4 | 
[V:4] G,4A,4 | 
[V:1] c2B2B2A2 | 
[V:2] g8- | 
[V:3] d8 | 
[V:4] G,8 | 
[V:1] c8- | 
[V:2] g4e2f2 | 
[V:3] c8- | 
[V:4] C,8- | 
[V:1] c8 ||  
[V:2] g8 ||  
[V:3] c8 ||  
[V:4] C,8 ||  
[V:1]  [K:C] [K:clef=treble][M:4/2]c8 | 
[V:2]  [K:C] [K:clef=treble-8][M:4/2]g8 | 
[V:3]  [K:C] [K:clef=treble-8][M:4/2]c8- | 
[V:4]  [K:C] [K:clef=bass][M:4/2]C,8- | 
[V:1] c6B2 | 
[V:2] g8 | 
[V:3] c8- | 
[V:4] C,8 | 
[V:1] A8 | 
[V:2] f8 | 
[V:3] c8- | 
[V:4] F,8 | 
[V:1] G4c4 | 
[V:2] e4g4- | 
[V:3] c8 | 
[V:4] C,8 | 
[V:1] B4B2c2 | 
[V:2] g4g4- | 
[V:3] d8- | 
[V:4] G,6A,2 | 
[V:1] d8 | 
[V:2] g4f4 | 
[V:3] d8 | 
[V:4] B,8 | 
[V:1] c8 | 
[V:2] e4c4 | 
[V:3] e8- | 
[V:4] C4A,4 | 
[V:1] B8 | 
[V:2] g8 | 
[V:3] e8 | 
[V:4] G,8 | 
[V:1] z4c4 | 
[V:2] c8 | 
[V:3] f8 | 
[V:4] F,8- | 
[V:1] c4A4 | 
[V:2] c4c4 | 
[V:3] f6e2 | 
[V:4] F,8 | 
[V:1] _B4A4 | 
[V:2] _B4c4 | 
[V:3] d4c4 | 
[V:4] G,4A,4 | 
[V:1] G2G4F2 | 
[V:2] G8 | 
[V:3] d8 | 
[V:4] _B,8 | 
[V:1] A8 | 
[V:2] c8- | 
[V:3] e8- | 
[V:4] A,8- | 
[V:1] z8 | 
[V:2] c8 | 
[V:3] e8 | 
[V:4] A,8 | 
[V:1] e4e4 | 
[V:2] A8 | 
[V:3] z8 | 
[V:4] C8 | 
[V:1] d8 | 
[V:2] B6c2 | 
[V:3] z8 | 
[V:4] G,8- | 
[V:1] B8 | 
[V:2] d8 | 
[V:3] g8- | 
[V:4] G,8 | 
[V:1] c8 | 
[V:2] e8 | 
[V:3] g8 | 
[V:4] C,8 | 
[V:1] A4B4 | 
[V:2] z4f4 | 
[V:3] f8 | 
[V:4] D,8 | 
[V:1] c8 | 
[V:2] g8 | 
[V:3] e8 | 
[V:4] C,8 | 
[V:1] d8 | 
[V:2] g8 | 
[V:3] d8- | 
[V:4] G,8- | 
[V:1] B4z4 | 
[V:2] g8 | 
[V:3] d8 | 
[V:4] G,8 | 
[V:1] c4c4- | 
[V:2] z4e4- | 
[V:3] c8- | 
[V:4] z8 | 
[V:1] c2B2A2G2 | 
[V:2] e4e4 | 
[V:3] c8 | 
[V:4] C,8- | 
[V:1] G8 | 
[V:2] c8 | 
[V:3] e8 | 
[V:4] C,8 | 
[V:1] z4F4 | 
[V:2] A4_B4 | 
[V:3] d8 | 
[V:4] D,8 | 
[V:1] E4A4 | 
[V:2] c4A4- | 
[V:3] c8 | 
[V:4] A,,8 | 
[V:1] (3:2:4G2F4E2D4 | 
[V:2] A4G4 | 
[V:3] d8 | 
[V:4] _B,,8 | 
[V:1] !fermata!C8 | 
[V:2] !fermata!A8 | 
[V:3] !fermata!e8 | 
[V:4] !fermata!A,,8 | 
[V:1] z8 | 
[V:2] G4c4 | 
[V:3] z8 | 
[V:4] C,8 | 
[V:1] z8 | 
[V:2] B8 | 
[V:3] z8 | 
[V:4] G,8 | 
[V:1] c8 | 
[V:2] c4c4 | 
[V:3] z8 | 
[V:4] _A,8 | 
[V:1] B8 | 
[V:2] d4d4 | 
[V:3] z8 | 
[V:4] G,8 | 
[V:1] c4c4 | 
[V:2] e8 | 
[V:3] z8 | 
[V:4] C,4E,4 | 
[V:1] d4d4 | 
[V:2] f8 | 
[V:3] z8 | 
[V:4] D,4B,,4 | 
[V:1] e8 | 
[V:2] e4c4 | 
[V:3] z8 | 
[V:4] C,4A,,4- | 
[V:1] f8 | 
[V:2] d8 | 
[V:3] z8 | 
[V:4] A,,2B,,6 | 
[V:1] e4c4 | 
[V:2] c8 | 
[V:3] z8 | 
[V:4] C,8 | 
[V:1] d8 | 
[V:2] z4B4 | 
[V:3] z8 | 
[V:4] G,8 | 
[V:1] c4A2B2 | 
[V:2] c2A4G2 | 
[V:3] z8 | 
[V:4] z8 | 
[V:1] G2c4B2 | 
[V:2] c4e2d2 | 
[V:3] z8 | 
[V:4] z8 | 
[V:1] c4A2c2 | 
[V:2] e2c4A2 | 
[V:3] z8 | 
[V:4] z8 | 
[V:1] B2d2c2A2- | 
[V:2] B4c4 | 
[V:3] z8 | 
[V:4] z8 | 
[V:1] A2d4B2- | 
[V:2] d4G4- | 
[V:3] z8 | 
[V:4] z8 | 
[V:1] B2G2A4 | 
[V:2] G4F4 | 
[V:3] z8 | 
[V:4] z8 | 
[V:1] D2E2D2G2 | 
[V:2] G4_B4 | 
[V:3] z8 | 
[V:4] z8 | 
[V:1] A2^F4E2 | 
[V:2] A8 | 
[V:3] z8 | 
[V:4] z8 | 
[V:1] G8 | 
[V:2] G8 | 
[V:3] z8 | 
[V:4] z8 | 
[V:1] z8 | 
[V:2] z8 | 
[V:3] z8 | 
[V:4] z8 | 
[V:1] c8 | 
[V:2] g8 | 
[V:3] e8 | 
[V:4] C8 | 
[V:1] [B8d8] | 
[V:2] g8 | 
[V:3] d8 | 
[V:4] G,8- | 
[V:1] B8 | 
[V:2] g8 | 
[V:3] e8 | 
[V:4] G,8 | 
[V:1] A8 | 
[V:2] c8- | 
[V:3] f8 | 
[V:4] F,8 | 
[V:1] G4c4- | 
[V:2] c4e4 | 
[V:3] e4c4 | 
[V:4] C,8 | 
[V:1] c4B4 | 
[V:2] d4g4- | 
[V:3] d8 | 
[V:4] G,8 | 
[V:1] c8- | 
[V:2] g8 | 
[V:3] c8- | 
[V:4] C,8- | 
[V:1] c8 | 
[V:2] e8 | 
[V:3] c8 | 
[V:4] C,8 | 
[V:1] z8 | 
[V:2] d4f4 | 
[V:3] d8 | 
[V:4] B,,8 | 
[V:1] z8 | 
[V:2] e2g4f2 | 
[V:3] c8 | 
[V:4] C,8 | 
[V:1] z8 | 
[V:2] d4c4- | 
[V:3] =B4A4- | 
[V:4] G,4A,4 | 
[V:1] z8 | 
[V:2] c2A2B4 | 
[V:3] A4G4- | 
[V:4] F,4G,4 | 
[V:1] z8 | 
[V:2] c3BG4- | 
[V:3] G4c4- | 
[V:4] C,4E,4 | 
[V:1] z8 | 
[V:2] G4F4 | 
[V:3] c4=B4 | 
[V:4] D,8 | 
[V:1] z8 | 
[V:2] G8- | 
[V:3] c8 | 
[V:4] C,8- | 
[V:1] c8 | 
[V:2] G8 | 
[V:3] z8 | 
[V:4] C,8 | 
[V:1] (3:2:2c8A4 | 
[V:2] z8 | 
[V:3] (3:2:2c8d4- | 
[V:4] z8 | 
[V:1] (3:2:2B8c4- | 
[V:2] z8 | 
[V:3] (3:2:2d4e8 | 
[V:4] z8 | 
[V:1] (3c4d4c4 | 
[V:2] z8 | 
[V:3] (3:2:2f8e4 | 
[V:4] z8 | 
[V:1] (3:2:2d4e8 | 
[V:2] z8 | 
[V:3] (3f4g6f2 | 
[V:4] z8 | 
[V:1] (3f4d4e4 | 
[V:2] z8 | 
[V:3] (3:2:2d8c4- | 
[V:4] z8 | 
[V:1] (3:2:5c4d2c2B2A2 | 
[V:2] z8 | 
[V:3] (3:2:2c4f8 | 
[V:4] z8 | 
[V:1] (3G4c4d4 | 
[V:2] z8 | 
[V:3] (3:2:2e8d4- | 
[V:4] z8 | 
[V:1] (3:2:4A4B4A2B2 | 
[V:2] z8 | 
[V:3] d8 | 
[V:4] z8 | 
[V:1] c8- | 
[V:2] z8 | 
[V:3] c8- | 
[V:4] z8 | 
[V:1] c8 | 
[V:2] c8 | 
[V:3] c8 | 
[V:4] z8 | 
[V:1] z8 | 
[V:2] (3:2:2c8A4 | 
[V:3] z8 | 
[V:4] (3:2:2C,8D,4- | 
[V:1] z8 | 
[V:2] (3:2:2B8c4- | 
[V:3] z8 | 
[V:4] (3:2:2D,4E,8 | 
[V:1] z8 | 
[V:2] (3c4d4c4 | 
[V:3] z8 | 
[V:4] (3:2:2F,8E,4 | 
[V:1] z8 | 
[V:2] (3:2:2d4e8 | 
[V:3] z8 | 
[V:4] (3F,4G,6F,2 | 
[V:1] z8 | 
[V:2] (3f4d4e4 | 
[V:3] z8 | 
[V:4] (3:2:2D,8C,4- | 
[V:1] z8 | 
[V:2] (3:2:5c4d2c2B2A2 | 
[V:3] z8 | 
[V:4] (3:2:2C,4F,8 | 
[V:1] z8 | 
[V:2] (3G4c4d4 | 
[V:3] z8 | 
[V:4] (3:2:2E,8D,4- | 
[V:1] z8 | 
[V:2] (3:2:4A4B4A2B2 | 
[V:3] z8 | 
[V:4] D,8 | 
[V:1] z8 | 
[V:2] c8 | 
[V:3] z8 | 
[V:4] C,8 | 
[V:1] z8 | 
[V:2] z8 | 
[V:3] z8 | 
[V:4] z8 | 
[V:1] !fermata!c8 | 
[V:2] !fermata!g8 | 
[V:3] !fermata!e8 | 
[V:4] !fermata!C,8 & !fermata!C8 | 
[V:1] !fermata!B8 | 
[V:2] !fermata!g8 | 
[V:3] !fermata!d8 | 
[V:4] !fermata!G,8 | 
[V:1] !fermata!c8 |]  
[V:2] !fermata![e8g8] |]  
[V:3] !fermata!c8 |]  
[V:4] !fermata!C,8 |]  



